assets/icons/discord.svg

<svg width="41" height="41" viewBox="0 0 41 41" fill="none" xmlns="http://www.w3.org/2000/svg">
<path d="M25.2001 7.4082C24.8691 8.00102 24.5741 8.61324 24.3168 9.24154C21.788 8.84162 19.2122 8.84162 16.6834 9.24154C16.4261 8.61324 16.1311 8.00102 15.8001 7.4082C13.4181 7.8152 11.1024 8.5441 8.91677 9.57487C5.00834 15.2153 3.23583 22.0631 3.91677 28.8915C6.46384 30.8063 9.32254 32.2667 12.3668 33.2082C13.06 32.2925 13.6786 31.3228 14.2168 30.3082C13.2236 29.942 12.2689 29.4786 11.3668 28.9249C11.6142 28.7602 11.8483 28.5763 12.0668 28.3749C14.6975 29.6421 17.5801 30.3001 20.5001 30.3001C23.4202 30.3001 26.3027 29.6421 28.9334 28.3749C29.1668 28.5749 29.4001 28.7582 29.6334 28.9249C28.7264 29.4743 27.7727 29.9428 26.7834 30.3249C27.2993 31.3624 27.9014 32.3548 28.5834 33.2915C31.6239 32.3532 34.4776 30.8925 37.0168 28.9749C37.7141 22.1452 35.9401 15.2918 32.0168 9.6582C29.8557 8.6061 27.5629 7.84932 25.2001 7.4082ZM14.9668 24.9915C14.1327 24.9317 13.3543 24.551 12.795 23.9295C12.2356 23.308 11.9388 22.4939 11.9668 21.6582C11.9345 20.8214 12.2299 20.005 12.7901 19.3826C13.3503 18.7601 14.1312 18.3807 14.9668 18.3249C15.8023 18.3807 16.5832 18.7601 17.1434 19.3826C17.7036 20.005 17.999 20.8214 17.9668 21.6582C17.999 22.495 17.7036 23.3114 17.1434 23.9339C16.5832 24.5563 15.8023 24.9357 14.9668 24.9915ZM26.0334 24.9915C25.1994 24.9317 24.421 24.551 23.8616 23.9295C23.3023 23.308 23.0054 22.4939 23.0334 21.6582C23.0012 20.8214 23.2966 20.005 23.8568 19.3826C24.417 18.7601 25.1979 18.3807 26.0334 18.3249C26.8706 18.3765 27.654 18.7547 28.215 19.3781C28.7761 20.0015 29.07 20.8203 29.0334 21.6582C29.07 22.4961 28.7761 23.3149 28.215 23.9383C27.654 24.5617 26.8706 24.9399 26.0334 24.9915Z" fill="#F6F6F6"/>
</svg>

<svg width="41" height="41" fill="none" xmlns="http://www.w3.org/2000/svg"><path d="M25.2 7.408a16.892 16.892 0 0 0-.883 1.834c-2.529-.4-5.105-.4-7.634 0a16.892 16.892 0 0 0-.883-1.834 26.666 26.666 0 0 0-6.883 2.167 28.883 28.883 0 0 0-5 19.317 27.665 27.665 0 0 0 8.45 4.316 21.486 21.486 0 0 0 1.85-2.9 16.087 16.087 0 0 1-2.85-1.383c.247-.165.481-.349.7-.55a19.433 19.433 0 0 0 16.866 0c.234.2.467.383.7.55a18.06 18.06 0 0 1-2.85 1.4 20.694 20.694 0 0 0 1.8 2.966 27.401 27.401 0 0 0 8.434-4.316 28.7 28.7 0 0 0-5-19.317 26.817 26.817 0 0 0-6.817-2.25ZM14.967 24.991a3.233 3.233 0 0 1-3-3.333 3.216 3.216 0 0 1 3-3.333 3.217 3.217 0 0 1 3 3.333 3.217 3.217 0 0 1-3 3.333Zm11.066 0a3.233 3.233 0 0 1-3-3.333 3.217 3.217 0 0 1 3-3.333 3.2 3.2 0 0 1 3 3.333 3.2 3.2 0 0 1-3 3.333Z" fill="#F6F6F6"/></svg>
